svgs/solid/h6.svg

<svg xmlns="http://www.w3.org/2000/svg" viewBox="0 0 640 512"><!--! Font Awesome Pro 6.2.0 by @fontawesome - https://fontawesome.com License - https://fontawesome.com/license (Commercial License) Copyright 2022 Fonticons, Inc. --><path d="M537 116l-35.3 44.1C578.6 163.1 640 226.4 640 304c0 79.5-64.5 144-144 144s-144-64.5-144-144c0-38.3 13-75.5 37-105.5L487 76c11-13.8 31.2-16 45-5s16 31.2 5 45zM416 304c0 44.2 35.8 80 80 80s80-35.8 80-80s-35.8-80-80-80s-80 35.8-80 80zM32 64c17.7 0 32 14.3 32 32V224H256V96c0-17.7 14.3-32 32-32s32 14.3 32 32V256 416c0 17.7-14.3 32-32 32s-32-14.3-32-32V288H64V416c0 17.7-14.3 32-32 32s-32-14.3-32-32V256 96C0 78.3 14.3 64 32 64z"/></svg>

<svg xmlns="http://www.w3.org/2000/svg" viewBox="0 0 640 512"><!--! Font Awesome Pro 6.1.2 by @fontawesome - https://fontawesome.com License - https://fontawesome.com/license (Commercial License) Copyright 2022 Fonticons, Inc. --><path d="M501.7 160.1C578.6 163.1 640 226.4 640 304C640 383.5 575.5 448 496 448C416.5 448 352 383.5 352 304C352 265.7 365 228.5 388.1 198.5L487 76.01C498.1 62.21 518.2 59.97 531.1 71.01C545.8 82.05 548 102.2 536.1 115.1L501.7 160.1zM416 304C416 348.2 451.8 384 496 384C540.2 384 576 348.2 576 304C576 259.8 540.2 224 496 224C451.8 224 416 259.8 416 304zM32 64C49.67 64 64 78.33 64 96V224H256V96C256 78.33 270.3 64 288 64C305.7 64 320 78.33 320 96V416C320 433.7 305.7 448 288 448C270.3 448 256 433.7 256 416V288H64V416C64 433.7 49.67 448 32 448C14.33 448 0 433.7 0 416V96C0 78.33 14.33 64 32 64V64z"/></svg>
